!!! OTL: Berkowitz67
!!! Chapter: 1
!!! Section: I
!!! Page: 18
!!! Mode: 
!!! Encoder: DJB
**kern
*staff1
*I"Piano
=1-
*clefG2
*k[b-e-a-d-]
*f:
*met(c|)
*M2/2
4f/
4c/
4a-/
4f/
=2
4cc\
8b-/L
8a-/J
4g/
4f/
=3
4en/
8f/L
8g/J
4a-/
8g/L
8f/J
=4
4a-/
4b-\
2cc\
=5
4f/
4c/
4a-/
4cc\
=6
4dd-\
8cc\L
8b-\J
4a-/
4g/
=7
4a-/
4f/
4c/
4cc\
=8
4c/
8dn/L
8en/J
2f/
==
*-
